X:2
T:Eynsham Poacher (Bampton) (California)
M:6/8
S:Binghamton MM
H:Dance composed by Steve Woodruff.
O:England; Oxfordshire; Bampton.
K:G
A | \
B2B Bcd | G2G G2D | G2G GAB | A2d d3 |
e2f gfe | d2B d2B | A2B cBA | B2c d3 |]
BGG G3  | cAA A3  | Bcd edc | BcA G3 |
BGG G3  | cAA A3  | Bcd edc | BcA G2 |]

